svg/set/BIG/C.svg

<?xml version="1.0" encoding="UTF-8" standalone="no"?>
<svg
   width="1000"
   height="1000"
   viewBox="0 0 1000 1000"
   version="1.1"
   xml:space="preserve"
   style="clip-rule:evenodd;fill-rule:evenodd;stroke-linejoin:round;stroke-miterlimit:2"
   id="svg32"
   xmlns="http://www.w3.org/2000/svg"
   xmlns:svg="http://www.w3.org/2000/svg">
    <g
   id="C"
   transform="translate(-0.94499999,1.89)">
        <rect
   x="0.94499999"
   y="-1.89"
   width="1000"
   height="1000"
   style="fill:none"
   id="rect1" />
        <g
   transform="matrix(1.25175,0,0,1.25757,-123.21,-128.252)"
   id="g1">
            <circle
   cx="522.565"
   cy="494.18399"
   r="370.879"
   style="fill:#feffff"
   id="circle1" />
        </g>
        <g
   transform="translate(-0.412177,-8.45874)"
   id="g2">
            <path
   d="m 531.007,78.271 c 232.583,0 421.412,188.828 421.412,421.412 0,232.583 -188.829,421.411 -421.412,421.411 -232.583,0 -421.411,-188.828 -421.411,-421.411 0,-232.584 188.828,-421.412 421.411,-421.412 z m 0.621,47.735 c -207.267,0 -375.541,167.996 -375.541,374.92 0,206.924 168.274,374.92 375.541,374.92 207.268,0 375.542,-167.996 375.542,-374.92 0,-206.924 -168.274,-374.92 -375.542,-374.92 z"
   id="path1" />
        </g>
        <g
   transform="matrix(0.976826,0,0,0.976897,-153.41,-114.938)"
   id="g3">
            <circle
   cx="700.87097"
   cy="622.37201"
   r="363.69101"
   id="circle2" />
        </g>
        <g
   transform="translate(-0.412177,-8.45874)"
   id="g4">
            <path
   d="M 60.422,232.606 H 475.029 V 770.534 H 59.538 c 0,0 -39.339,-72.854 -53.925,-141.002 h 79.562 c 0,0 -19.007,-54.002 -17.681,-135.333 1.326,-81.33 19.007,-121.553 19.007,-121.553 H 4.729 c 0,0 22.542,-88.69 55.693,-140.04 z m 70.05,139.566 c -46.064,152.901 0.476,258.247 0.476,258.247 h 108.931 c 12.207,-2.859 14.475,-17.629 14.475,-17.629 v -54.318 c 0,0 -27.159,-12.388 -30.017,-56.307 -2.859,-43.919 28.588,-56.14 28.588,-56.14 V 385.99 c -3.812,-9.529 -13.046,-13.818 -13.046,-13.818 z"
   style="fill:#feffff"
   id="path3" />
        </g>
        <g
   transform="translate(-0.412177,-8.45874)"
   id="g5">
            <path
   d="m 374.133,439.207 c 0,0 24.468,-69.302 95.663,-96.417 0,0 -6.465,-52.219 -6.13,-80.672 H 80.722 c 0,0 -30.461,56.906 -34.813,80.338 h 193.97 c 0,0 32.985,-0.712 44.701,40.503 v 237.064 c 0,0 -6.112,38.158 -42.087,42.39 h -196.8 c 0,0 12.344,43.849 34.441,77.9 h 385.068 c 0,0 -5.606,-36.97 7.296,-79.904 0,0 -66.254,-18.808 -98.753,-97.533 -32.499,-78.726 0.388,-123.669 0.388,-123.669 z"
   id="path4" />
        </g>
        <g
   transform="translate(-0.412177,-8.45874)"
   id="g6">
            <path
   d="m 469.796,344.848 c 0,0 0.153,1.39 -6.966,-82.514 0,0 1.687,-67.632 69.238,-70.683 67.551,-3.051 68.06,74.242 68.06,74.242 0,0 -3.56,57.97 -8.136,76.277 -4.577,18.306 -9.662,33.053 -9.662,33.053 l -27.968,65.089 H 500 c 0,0 -29.34,-77.53 -30.204,-95.464 z"
   style="fill:#feffff"
   id="path5" />
        </g>
        <g
   transform="matrix(1,0,0,-1,-0.412177,994.312)"
   id="g7">
            <path
   d="m 469.796,344.848 c 0,0 0.153,1.39 -6.966,-82.514 0,0 1.687,-67.632 69.238,-70.683 67.551,-3.051 68.06,74.242 68.06,74.242 0,0 -3.56,57.97 -8.136,76.277 -4.577,18.306 -9.662,33.053 -9.662,33.053 l -27.968,65.089 H 500 c 0,0 -29.34,-77.53 -30.204,-95.464 z"
   style="fill:#feffff"
   id="path6" />
        </g>
        <g
   transform="rotate(90,535.52685,497.10315)"
   id="g8">
            <path
   d="m 469.796,344.848 c 0,0 0.153,1.39 -6.966,-82.514 0,0 1.687,-67.632 69.238,-70.683 67.551,-3.051 68.06,74.242 68.06,74.242 0,0 -3.56,57.97 -8.136,76.277 -4.577,18.306 -9.662,33.053 -9.662,33.053 l -27.968,65.089 H 500 c 0,0 -29.34,-77.53 -30.204,-95.464 z"
   style="fill:#feffff"
   id="path7" />
        </g>
        <g
   transform="matrix(0,1,1,0,30.2409,-37.7726)"
   id="g9">
            <path
   d="m 469.796,344.848 c 0,0 0.153,1.39 -6.966,-82.514 0,0 1.687,-67.632 69.238,-70.683 67.551,-3.051 68.06,74.242 68.06,74.242 0,0 -3.56,57.97 -8.136,76.277 -4.577,18.306 -9.662,33.053 -9.662,33.053 l -27.968,65.089 H 500 c 0,0 -29.34,-77.53 -30.204,-95.464 z"
   style="fill:#feffff"
   id="path8" />
        </g>
        <g
   transform="matrix(0.929883,0,0,0.919548,-30.2487,-17.7943)"
   id="g10">
            <circle
   cx="604.13202"
   cy="556.25201"
   r="183.17799"
   style="fill:#feffff"
   id="circle9" />
        </g>
        <g
   transform="translate(-0.412177,-8.45874)"
   id="g11">
            <path
   d="m 549.298,410.086 c 0,0 15.764,-73.608 18.883,-132.52 3.119,-58.912 -36.458,-53.714 -36.458,-53.714 0,0 -39.435,-5.198 -37.009,53.021 2.426,58.218 18.075,123.407 19.434,133.437 0,0 15.921,-7.012 35.15,-0.224 z"
   id="path10" />
        </g>
        <g
   transform="matrix(1,0,0,-1,0.17452,993.563)"
   id="g12">
            <path
   d="m 549.298,410.086 c 0,0 15.764,-73.608 18.883,-132.52 3.119,-58.912 -36.458,-53.714 -36.458,-53.714 0,0 -39.435,-5.198 -37.009,53.021 2.426,58.218 18.075,123.407 19.434,133.437 0,0 15.921,-7.012 35.15,-0.224 z"
   id="path11" />
        </g>
        <g
   transform="rotate(-90,525.44525,497.57475)"
   id="g13">
            <path
   d="m 549.298,410.086 c 0,0 15.764,-73.608 18.883,-132.52 3.119,-58.912 -36.458,-53.714 -36.458,-53.714 0,0 -39.435,-5.198 -37.009,53.021 2.426,58.218 18.075,123.407 19.434,133.437 0,0 15.921,-7.012 35.15,-0.224 z"
   style="fill:url(#_Linear1)"
   id="path12" />
        </g>
        <g
   transform="rotate(-90,527.1771,496.8829)"
   id="g14">
            <path
   d="m 549.298,410.086 c 0,0 15.764,-73.608 18.883,-132.52 3.119,-58.912 -36.458,-53.714 -36.458,-53.714 0,0 -39.435,-5.198 -37.009,53.021 2.426,58.218 18.075,123.407 19.434,133.437 0,0 15.921,-7.012 35.15,-0.224 z"
   id="path13" />
        </g>
        <g
   transform="matrix(0,-1,-1,0,1032.94,1024.06)"
   id="g15">
            <path
   d="m 549.298,410.086 c 0,0 15.764,-73.608 18.883,-132.52 3.119,-58.912 -36.458,-53.714 -36.458,-53.714 0,0 -39.435,-5.198 -37.009,53.021 2.426,58.218 18.075,123.407 19.434,133.437 0,0 15.921,-7.012 35.15,-0.224 z"
   id="path14" />
        </g>
        <g
   transform="matrix(1.11791,0,0,1.11791,-82.2522,-60.3657)"
   id="g16">
            <circle
   cx="549.15802"
   cy="495.06201"
   r="83.615997"
   style="fill:#feffff"
   id="circle15" />
        </g>
        <g
   transform="matrix(1.09505,0,0,1.09699,-64.4572,-66.8923)"
   id="g17">
            <circle
   cx="543.87"
   cy="510.008"
   r="56.367001"
   id="circle16" />
        </g>
    </g>
    <defs
   id="defs32">
        <linearGradient
   id="_Linear1"
   x1="0"
   y1="0"
   x2="1"
   y2="0"
   gradientUnits="userSpaceOnUse"
   gradientTransform="matrix(-600.073,904.397,-805.8,-534.653,839.919,29.6207)"><stop
     offset="0"
     style="stop-color:rgb(187,44,38);stop-opacity:1"
     id="stop17" /><stop
     offset="0.04"
     style="stop-color:rgb(191,53,38);stop-opacity:1"
     id="stop18" /><stop
     offset="0.11"
     style="stop-color:rgb(203,77,37);stop-opacity:1"
     id="stop19" /><stop
     offset="0.19"
     style="stop-color:rgb(222,117,35);stop-opacity:1"
     id="stop20" /><stop
     offset="0.21"
     style="stop-color:rgb(225,122,35);stop-opacity:1"
     id="stop21" /><stop
     offset="0.29"
     style="stop-color:rgb(238,139,31);stop-opacity:1"
     id="stop22" /><stop
     offset="0.38"
     style="stop-color:rgb(245,149,30);stop-opacity:1"
     id="stop23" /><stop
     offset="0.5"
     style="stop-color:rgb(255,153,21);stop-opacity:1"
     id="stop24" /><stop
     offset="0.62"
     style="stop-color:rgb(245,149,30);stop-opacity:1"
     id="stop25" /><stop
     offset="0.71"
     style="stop-color:rgb(238,139,31);stop-opacity:1"
     id="stop26" /><stop
     offset="0.79"
     style="stop-color:rgb(225,122,35);stop-opacity:1"
     id="stop27" /><stop
     offset="0.8"
     style="stop-color:rgb(224,120,35);stop-opacity:1"
     id="stop28" /><stop
     offset="0.85"
     style="stop-color:rgb(211,93,36);stop-opacity:1"
     id="stop29" /><stop
     offset="0.91"
     style="stop-color:rgb(198,66,37);stop-opacity:1"
     id="stop30" /><stop
     offset="0.96"
     style="stop-color:rgb(190,50,38);stop-opacity:1"
     id="stop31" /><stop
     offset="1"
     style="stop-color:rgb(187,44,38);stop-opacity:1"
     id="stop32" /></linearGradient>
    </defs>
</svg>

<?xml version="1.0" encoding="UTF-8" standalone="no"?>
<!DOCTYPE svg PUBLIC "-//W3C//DTD SVG 1.1//EN" "http://www.w3.org/Graphics/SVG/1.1/DTD/svg11.dtd">
<svg width="100%" height="100%" viewBox="0 0 1000 1000" version="1.1" xmlns="http://www.w3.org/2000/svg" xmlns:xlink="http://www.w3.org/1999/xlink" xml:space="preserve" xmlns:serif="http://www.serif.com/" style="fill-rule:evenodd;clip-rule:evenodd;stroke-linejoin:round;stroke-miterlimit:2;">
    <g id="C" transform="matrix(1,0,0,1,-0.94518,1.89036)">
        <rect x="0.945" y="-1.89" width="1000" height="1000" style="fill:none;"/>
        <g transform="matrix(1.25175,0,0,1.25757,-123.21,-128.252)">
            <circle cx="522.565" cy="494.184" r="370.879" style="fill:rgb(254,255,255);"/>
        </g>
        <g transform="matrix(1,0,0,1,-0.412177,-8.45874)">
            <path d="M531.007,78.271C763.59,78.271 952.419,267.099 952.419,499.683C952.419,732.266 763.59,921.094 531.007,921.094C298.424,921.094 109.596,732.266 109.596,499.683C109.596,267.099 298.424,78.271 531.007,78.271ZM531.628,126.006C324.361,126.006 156.087,294.002 156.087,500.926C156.087,707.85 324.361,875.846 531.628,875.846C738.896,875.846 907.17,707.85 907.17,500.926C907.17,294.002 738.896,126.006 531.628,126.006Z"/>
        </g>
        <g transform="matrix(0.976826,0,0,0.976897,-153.41,-114.938)">
            <circle cx="700.871" cy="622.372" r="363.691"/>
        </g>
        <g transform="matrix(1,0,0,1,-0.412177,-8.45874)">
            <path d="M60.422,232.606L475.029,232.606L475.029,770.534L59.538,770.534C59.538,770.534 20.199,697.68 5.613,629.532L85.175,629.532C85.175,629.532 66.168,575.53 67.494,494.199C68.82,412.869 86.501,372.646 86.501,372.646L4.729,372.646C4.729,372.646 27.271,283.956 60.422,232.606ZM130.472,372.172C84.408,525.073 130.948,630.419 130.948,630.419L239.879,630.419C252.086,627.56 254.354,612.79 254.354,612.79L254.354,558.472C254.354,558.472 227.195,546.084 224.337,502.165C221.478,458.246 252.925,446.025 252.925,446.025L252.925,385.99C249.113,376.461 239.879,372.172 239.879,372.172L130.472,372.172Z" style="fill:rgb(254,255,255);"/>
        </g>
        <g transform="matrix(1,0,0,1,-0.412177,-8.45874)">
            <path d="M374.133,439.207C374.133,439.207 398.601,369.905 469.796,342.79C469.796,342.79 463.331,290.571 463.666,262.118L80.722,262.118C80.722,262.118 50.261,319.024 45.909,342.456L239.879,342.456C239.879,342.456 272.864,341.744 284.58,382.959L284.58,620.023C284.58,620.023 278.468,658.181 242.493,662.413L45.693,662.413C45.693,662.413 58.037,706.262 80.134,740.313L465.202,740.313C465.202,740.313 459.596,703.343 472.498,660.409C472.498,660.409 406.244,641.601 373.745,562.876C341.246,484.15 374.133,439.207 374.133,439.207Z"/>
        </g>
        <g transform="matrix(1,0,0,1,-0.412177,-8.45874)">
            <path d="M469.796,344.848C469.796,344.848 469.949,346.238 462.83,262.334C462.83,262.334 464.517,194.702 532.068,191.651C599.619,188.6 600.128,265.893 600.128,265.893C600.128,265.893 596.568,323.863 591.992,342.17C587.415,360.476 582.33,375.223 582.33,375.223L554.362,440.312L500,440.312C500,440.312 470.66,362.782 469.796,344.848Z" style="fill:rgb(254,255,255);"/>
        </g>
        <g transform="matrix(1,0,0,-1,-0.412177,994.312)">
            <path d="M469.796,344.848C469.796,344.848 469.949,346.238 462.83,262.334C462.83,262.334 464.517,194.702 532.068,191.651C599.619,188.6 600.128,265.893 600.128,265.893C600.128,265.893 596.568,323.863 591.992,342.17C587.415,360.476 582.33,375.223 582.33,375.223L554.362,440.312L500,440.312C500,440.312 470.66,362.782 469.796,344.848Z" style="fill:rgb(254,255,255);"/>
        </g>
        <g transform="matrix(6.12323e-17,1,-1,6.12323e-17,1032.63,-38.4237)">
            <path d="M469.796,344.848C469.796,344.848 469.949,346.238 462.83,262.334C462.83,262.334 464.517,194.702 532.068,191.651C599.619,188.6 600.128,265.893 600.128,265.893C600.128,265.893 596.568,323.863 591.992,342.17C587.415,360.476 582.33,375.223 582.33,375.223L554.362,440.312L500,440.312C500,440.312 470.66,362.782 469.796,344.848Z" style="fill:rgb(254,255,255);"/>
        </g>
        <g transform="matrix(-6.12323e-17,1,1,6.12323e-17,30.2409,-37.7726)">
            <path d="M469.796,344.848C469.796,344.848 469.949,346.238 462.83,262.334C462.83,262.334 464.517,194.702 532.068,191.651C599.619,188.6 600.128,265.893 600.128,265.893C600.128,265.893 596.568,323.863 591.992,342.17C587.415,360.476 582.33,375.223 582.33,375.223L554.362,440.312L500,440.312C500,440.312 470.66,362.782 469.796,344.848Z" style="fill:rgb(254,255,255);"/>
        </g>
        <g transform="matrix(0.929883,0,0,0.919548,-30.2487,-17.7943)">
            <circle cx="604.132" cy="556.252" r="183.178" style="fill:rgb(254,255,255);"/>
        </g>
        <g transform="matrix(1,0,0,1,-0.412177,-8.45874)">
            <path d="M549.298,410.086C549.298,410.086 565.062,336.478 568.181,277.566C571.3,218.654 531.723,223.852 531.723,223.852C531.723,223.852 492.288,218.654 494.714,276.873C497.14,335.091 512.789,400.28 514.148,410.31C514.148,410.31 530.069,403.298 549.298,410.086Z"/>
        </g>
        <g transform="matrix(1,0,0,-1,0.17452,993.563)">
            <path d="M549.298,410.086C549.298,410.086 565.062,336.478 568.181,277.566C571.3,218.654 531.723,223.852 531.723,223.852C531.723,223.852 492.288,218.654 494.714,276.873C497.14,335.091 512.789,400.28 514.148,410.31C514.148,410.31 530.069,403.298 549.298,410.086Z"/>
        </g>
        <g transform="matrix(6.12323e-17,-1,1,6.12323e-17,27.8705,1023.02)">
            <path d="M549.298,410.086C549.298,410.086 565.062,336.478 568.181,277.566C571.3,218.654 531.723,223.852 531.723,223.852C531.723,223.852 492.288,218.654 494.714,276.873C497.14,335.091 512.789,400.28 514.148,410.31C514.148,410.31 530.069,403.298 549.298,410.086Z" style="fill:url(#_Linear1);"/>
        </g>
        <g transform="matrix(6.12323e-17,-1,1,6.12323e-17,30.2942,1024.06)">
            <path d="M549.298,410.086C549.298,410.086 565.062,336.478 568.181,277.566C571.3,218.654 531.723,223.852 531.723,223.852C531.723,223.852 492.288,218.654 494.714,276.873C497.14,335.091 512.789,400.28 514.148,410.31C514.148,410.31 530.069,403.298 549.298,410.086Z"/>
        </g>
        <g transform="matrix(-6.12323e-17,-1,-1,6.12323e-17,1032.94,1024.06)">
            <path d="M549.298,410.086C549.298,410.086 565.062,336.478 568.181,277.566C571.3,218.654 531.723,223.852 531.723,223.852C531.723,223.852 492.288,218.654 494.714,276.873C497.14,335.091 512.789,400.28 514.148,410.31C514.148,410.31 530.069,403.298 549.298,410.086Z"/>
        </g>
        <g transform="matrix(1.11791,0,0,1.11791,-82.2522,-60.3657)">
            <circle cx="549.158" cy="495.062" r="83.616" style="fill:rgb(254,255,255);"/>
        </g>
        <g transform="matrix(1.09505,0,0,1.09699,-64.4572,-66.8923)">
            <circle cx="543.87" cy="510.008" r="56.367"/>
        </g>
    </g>
    <defs>
        <linearGradient id="_Linear1" x1="0" y1="0" x2="1" y2="0" gradientUnits="userSpaceOnUse" gradientTransform="matrix(-600.073,904.397,-805.8,-534.653,839.919,29.6207)"><stop offset="0" style="stop-color:rgb(187,44,38);stop-opacity:1"/><stop offset="0.04" style="stop-color:rgb(191,53,38);stop-opacity:1"/><stop offset="0.11" style="stop-color:rgb(203,77,37);stop-opacity:1"/><stop offset="0.19" style="stop-color:rgb(222,117,35);stop-opacity:1"/><stop offset="0.21" style="stop-color:rgb(225,122,35);stop-opacity:1"/><stop offset="0.29" style="stop-color:rgb(238,139,31);stop-opacity:1"/><stop offset="0.38" style="stop-color:rgb(245,149,30);stop-opacity:1"/><stop offset="0.5" style="stop-color:rgb(255,153,21);stop-opacity:1"/><stop offset="0.62" style="stop-color:rgb(245,149,30);stop-opacity:1"/><stop offset="0.71" style="stop-color:rgb(238,139,31);stop-opacity:1"/><stop offset="0.79" style="stop-color:rgb(225,122,35);stop-opacity:1"/><stop offset="0.8" style="stop-color:rgb(224,120,35);stop-opacity:1"/><stop offset="0.85" style="stop-color:rgb(211,93,36);stop-opacity:1"/><stop offset="0.91" style="stop-color:rgb(198,66,37);stop-opacity:1"/><stop offset="0.96" style="stop-color:rgb(190,50,38);stop-opacity:1"/><stop offset="1" style="stop-color:rgb(187,44,38);stop-opacity:1"/></linearGradient>
    </defs>
</svg>
